X: 140
T:3/8 Bourree (Antwerp)
M:3/8
L:1/8
R:Bourree
Z:Steve Mansfield
K:Dm
GdG | fe2 | c/d/c/B/A/G/ | ABc | GdG | fe2 |
e/f/e/d/c/B/ |1A3 :|2 A2 f |:edf | edf |
gg/f/e/f/ | edf | edf | edB | c3 |1 c2f :|2 c3 ||
<end>
<start>
